svg/icon/dnt.svg

<svg xmlns="http://www.w3.org/2000/svg" xmlns:xlink="http://www.w3.org/1999/xlink" width="32" height="32" viewBox="0 0 32 32"><defs><linearGradient id="dnt-c" x1="50%" x2="50%" y1="0%" y2="100%"><stop offset="0%" stop-color="#FFF" stop-opacity=".5"/><stop offset="100%" stop-opacity=".5"/></linearGradient><circle id="dnt-b" cx="16" cy="15" r="15"/><filter id="dnt-a" width="111.7%" height="111.7%" x="-5.8%" y="-4.2%" filterUnits="objectBoundingBox"><feOffset dy=".5" in="SourceAlpha" result="shadowOffsetOuter1"/><feGaussianBlur in="shadowOffsetOuter1" result="shadowBlurOuter1" stdDeviation=".5"/><feComposite in="shadowBlurOuter1" in2="SourceAlpha" operator="out" result="shadowBlurOuter1"/><feColorMatrix in="shadowBlurOuter1" values="0 0 0 0 0 0 0 0 0 0 0 0 0 0 0 0 0 0 0.199473505 0"/></filter><path id="dnt-e" d="M25.0753001,18.0997283 C25.6012497,18.0735932 26.1031172,17.8702702 26.5,17.5225356 C25.9485033,20.3392361 24.4089082,23.1097612 21.7663196,24.63355 C19.7441649,25.8110231 17.2164715,26.2035142 14.7577152,25.903374 C14.3900507,24.8413394 13.4249314,23.7100416 11.7474621,22.8557964 C9.10487353,21.4936215 7.86400586,19.1386752 6.73803334,20.2930607 C6.63400618,20.392528 6.54841679,20.5097927 6.485264,20.6393763 C6.43930593,20.5470255 6.39334787,20.4315869 6.34738981,20.3161484 C4.18736089,14.9597999 6.34738981,9.58036368 10.6674476,5.72471626 C13.2410991,3.43903307 16.2513522,3.69299787 18.9398988,4.93973416 C18.6133285,5.20334606 18.4266548,5.60403514 18.4343601,6.02485648 L18.4343601,11.4273804 C16.1253458,10.0825161 13.1867921,10.6145071 11.4901988,12.6845401 C9.79360544,14.7545732 9.83761848,17.7542446 11.594207,19.77313 C13.3507954,21.7920155 16.3036802,22.236744 18.5722343,20.824078 C18.851415,21.4199384 19.5048369,21.7412616 20.1444495,21.5972222 C20.7840621,21.4531827 21.2384658,20.8823794 21.2378019,20.2237975 L21.2378019,6.30190899 C23.3059147,7.75643466 24.9604049,9.60345138 25.7187129,10.8732754 C26.0884164,11.5110656 26.3522978,12.2050807 26.5,12.9280815 C26.1746611,12.6872524 25.7962892,12.5288518 25.3970065,12.4663273 C24.5467824,12.4201519 23.9033695,13.5745373 24.3399711,15.2368524 C24.7076356,16.7375535 24.248055,18.0535529 25.0753001,18.0997283 Z M14.7117571,18.1920792 C11.8163992,16.5297641 14.2521765,12.2585379 17.1475344,13.920853 C18.0207376,14.4056949 18.1126537,15.9525714 17.9518005,16.9453429 C17.6530731,18.6538333 16.0445409,18.9539735 14.7117571,18.1920792 Z M16.0675199,7.15615423 C15.4241071,7.17924193 14.9645264,7.96422404 14.9875055,8.31053968 C15.0104845,8.65685531 15.4930441,8.8646447 16.159436,8.6337676 C16.7568909,8.42597822 17.3083876,8.56450448 17.2854086,8.21818884 C17.2624295,7.87187321 16.6879538,7.13306652 16.0675199,7.15615423 Z"/><filter id="dnt-d" width="116.7%" height="115.9%" x="-8.3%" y="-5.7%" filterUnits="objectBoundingBox"><feOffset dy=".5" in="SourceAlpha" result="shadowOffsetOuter1"/><feGaussianBlur in="shadowOffsetOuter1" result="shadowBlurOuter1" stdDeviation=".5"/><feColorMatrix in="shadowBlurOuter1" values="0 0 0 0 0 0 0 0 0 0 0 0 0 0 0 0 0 0 0.204257246 0"/></filter></defs><g fill="none" fill-rule="evenodd"><g fill-rule="nonzero"><use fill="#000" filter="url(#dnt-a)" xlink:href="#dnt-b"/><use fill="#2C398F" fill-rule="evenodd" xlink:href="#dnt-b"/><use fill="url(#dnt-c)" fill-rule="evenodd" style="mix-blend-mode:soft-light" xlink:href="#dnt-b"/><circle cx="16" cy="15" r="14.5" stroke="#000" stroke-opacity=".097"/></g><g fill-rule="nonzero"><use fill="#000" filter="url(#dnt-d)" xlink:href="#dnt-e"/><use fill="#FFF" fill-rule="evenodd" xlink:href="#dnt-e"/></g></g></svg>

<svg xmlns="http://www.w3.org/2000/svg" xmlns:xlink="http://www.w3.org/1999/xlink" width="32" height="32" viewBox="0 0 32 32"><defs><linearGradient id="c" x1="50%" x2="50%" y1="0%" y2="100%"><stop offset="0%" stop-color="#FFF" stop-opacity=".5"/><stop offset="100%" stop-opacity=".5"/></linearGradient><circle id="b" cx="16" cy="15" r="15"/><filter id="a" width="111.7%" height="111.7%" x="-5.8%" y="-4.2%" filterUnits="objectBoundingBox"><feOffset dy=".5" in="SourceAlpha" result="shadowOffsetOuter1"/><feGaussianBlur in="shadowOffsetOuter1" result="shadowBlurOuter1" stdDeviation=".5"/><feComposite in="shadowBlurOuter1" in2="SourceAlpha" operator="out" result="shadowBlurOuter1"/><feColorMatrix in="shadowBlurOuter1" values="0 0 0 0 0 0 0 0 0 0 0 0 0 0 0 0 0 0 0.199473505 0"/></filter><path id="e" d="M25.075 18.1a2.338 2.338 0 0 0 1.425-.577c-.551 2.816-2.091 5.587-4.734 7.11-2.022 1.178-4.55 1.57-7.008 1.27-.368-1.062-1.333-2.193-3.01-3.047-2.643-1.362-3.884-3.717-5.01-2.563-.104.1-.19.217-.253.346a4.353 4.353 0 0 1-.138-.323c-2.16-5.356 0-10.736 4.32-14.591 2.574-2.286 5.584-2.032 8.273-.785a1.362 1.362 0 0 0-.506 1.085v5.402a5.435 5.435 0 0 0-6.944 1.258 5.498 5.498 0 0 0 .104 7.088 5.435 5.435 0 0 0 6.978 1.051 1.398 1.398 0 0 0 2.666-.6V6.302c2.068 1.454 3.722 3.301 4.48 4.571.37.638.634 1.332.782 2.055-.325-.24-.704-.4-1.103-.462-.85-.046-1.494 1.109-1.057 2.77.368 1.502-.092 2.818.735 2.864zm-10.363.092c-2.896-1.662-.46-5.933 2.436-4.271.873.485.965 2.032.804 3.024-.299 1.709-1.907 2.009-3.24 1.247zm1.356-11.036c-.644.023-1.103.808-1.08 1.155.022.346.505.554 1.171.323.598-.208 1.15-.07 1.126-.416-.023-.346-.597-1.085-1.217-1.062z"/><filter id="d" width="116.7%" height="115.9%" x="-8.3%" y="-5.7%" filterUnits="objectBoundingBox"><feOffset dy=".5" in="SourceAlpha" result="shadowOffsetOuter1"/><feGaussianBlur in="shadowOffsetOuter1" result="shadowBlurOuter1" stdDeviation=".5"/><feColorMatrix in="shadowBlurOuter1" values="0 0 0 0 0 0 0 0 0 0 0 0 0 0 0 0 0 0 0.204257246 0"/></filter></defs><g fill="none"><use fill="#000" filter="url(#a)" xlink:href="#b"/><use fill="#2C398F" fill-rule="evenodd" xlink:href="#b"/><use fill="url(#c)" fill-rule="evenodd" style="mix-blend-mode:soft-light" xlink:href="#b"/><circle cx="16" cy="15" r="14.5" stroke="#000" stroke-opacity=".097"/><use fill="#000" filter="url(#d)" xlink:href="#e"/><use fill="#FFF" fill-rule="evenodd" xlink:href="#e"/></g></svg>
